images/50860685.svg

<?xml version="1.0" encoding="UTF-8"?>
<svg xmlns="http://www.w3.org/2000/svg" xmlns:xlink="http://www.w3.org/1999/xlink" width="300pt" height="300pt" viewBox="0 0 300 300" version="1.1">
<defs>
<g>
<symbol overflow="visible" id="glyph0-0">
<path style="stroke:none;" d="M 0.546875 1.9375 L 0.546875 -7.75 L 6.046875 -7.75 L 6.046875 1.9375 Z M 1.171875 1.328125 L 5.4375 1.328125 L 5.4375 -7.140625 L 1.171875 -7.140625 Z M 1.171875 1.328125 "/>
</symbol>
<symbol overflow="visible" id="glyph0-1">
<path style="stroke:none;" d="M 1.078125 -8.015625 L 5.6875 -8.015625 L 5.6875 -7.109375 L 2.171875 -7.109375 L 2.171875 -4.75 L 5.34375 -4.75 L 5.34375 -3.828125 L 2.171875 -3.828125 L 2.171875 0 L 1.078125 0 Z M 1.078125 -8.015625 "/>
</symbol>
<symbol overflow="visible" id="glyph0-2">
<path style="stroke:none;" d="M 1.078125 -8.015625 L 2.546875 -8.015625 L 6.09375 -1.3125 L 6.09375 -8.015625 L 7.15625 -8.015625 L 7.15625 0 L 5.6875 0 L 2.125 -6.703125 L 2.125 0 L 1.078125 0 Z M 1.078125 -8.015625 "/>
</symbol>
<symbol overflow="visible" id="glyph0-3">
<path style="stroke:none;" d="M 1.078125 -8.015625 L 2.171875 -8.015625 L 2.171875 -4.734375 L 6.109375 -4.734375 L 6.109375 -8.015625 L 7.1875 -8.015625 L 7.1875 0 L 6.109375 0 L 6.109375 -3.8125 L 2.171875 -3.8125 L 2.171875 0 L 1.078125 0 Z M 1.078125 -8.015625 "/>
</symbol>
<symbol overflow="visible" id="glyph1-0">
<path style="stroke:none;" d="M 0.453125 1.59375 L 0.453125 -6.34375 L 4.953125 -6.34375 L 4.953125 1.59375 Z M 0.953125 1.09375 L 4.453125 1.09375 L 4.453125 -5.84375 L 0.953125 -5.84375 Z M 0.953125 1.09375 "/>
</symbol>
<symbol overflow="visible" id="glyph1-1">
<path style="stroke:none;" d="M 1.734375 -0.75 L 4.828125 -0.75 L 4.828125 0 L 0.65625 0 L 0.65625 -0.75 C 1 -1.09375 1.457031 -1.554688 2.03125 -2.140625 C 2.613281 -2.734375 2.984375 -3.113281 3.140625 -3.28125 C 3.421875 -3.601562 3.613281 -3.875 3.71875 -4.09375 C 3.832031 -4.320312 3.890625 -4.539062 3.890625 -4.75 C 3.890625 -5.101562 3.769531 -5.390625 3.53125 -5.609375 C 3.289062 -5.828125 2.972656 -5.9375 2.578125 -5.9375 C 2.296875 -5.9375 2 -5.882812 1.6875 -5.78125 C 1.382812 -5.6875 1.054688 -5.539062 0.703125 -5.34375 L 0.703125 -6.25 C 1.054688 -6.382812 1.390625 -6.488281 1.703125 -6.5625 C 2.015625 -6.644531 2.300781 -6.6875 2.5625 -6.6875 C 3.238281 -6.6875 3.78125 -6.515625 4.1875 -6.171875 C 4.59375 -5.828125 4.796875 -5.375 4.796875 -4.8125 C 4.796875 -4.539062 4.742188 -4.28125 4.640625 -4.03125 C 4.535156 -3.789062 4.351562 -3.507812 4.09375 -3.1875 C 4.019531 -3.101562 3.785156 -2.859375 3.390625 -2.453125 C 2.992188 -2.046875 2.441406 -1.476562 1.734375 -0.75 Z M 1.734375 -0.75 "/>
</symbol>
</g>
</defs>
<g id="surface18433">
<rect x="0" y="0" width="300" height="300" style="fill:rgb(100%,100%,100%);fill-opacity:1;stroke:none;"/>
<path style="fill:none;stroke-width:1.2;stroke-linecap:butt;stroke-linejoin:miter;stroke:rgb(20%,80%,80%);stroke-opacity:1;stroke-miterlimit:10;" d="M 111.816406 223.285156 L 99.054688 221.683594 "/>
<path style="fill:none;stroke-width:1.2;stroke-linecap:butt;stroke-linejoin:miter;stroke:rgb(0%,0%,0%);stroke-opacity:1;stroke-miterlimit:10;" d="M 99.054688 221.683594 L 86.292969 220.085938 "/>
<path style=" stroke:none;fill-rule:nonzero;fill:rgb(100%,100%,100%);fill-opacity:1;" d="M 108.816406 216.785156 L 115.816406 216.785156 L 115.816406 229.785156 L 108.816406 229.785156 Z M 108.816406 216.785156 "/>
<g style="fill:rgb(20%,80%,80%);fill-opacity:1;">
  <use xlink:href="#glyph0-1" x="108.816406" y="226.686523"/>
</g>
<path style="fill:none;stroke-width:1.2;stroke-linecap:butt;stroke-linejoin:miter;stroke:rgb(0%,0%,0%);stroke-opacity:1;stroke-miterlimit:10;" d="M 86.292969 220.085938 L 70.761719 240.589844 "/>
<path style="fill:none;stroke-width:1.2;stroke-linecap:butt;stroke-linejoin:miter;stroke:rgb(0%,0%,0%);stroke-opacity:1;stroke-miterlimit:10;" d="M 79.917969 218.480469 L 67.492188 234.882812 "/>
<path style="fill:none;stroke-width:1.2;stroke-linecap:butt;stroke-linejoin:miter;stroke:rgb(0%,0%,0%);stroke-opacity:1;stroke-miterlimit:10;" d="M 76.304688 196.382812 L 86.292969 220.085938 "/>
<path style="fill:none;stroke-width:1.2;stroke-linecap:butt;stroke-linejoin:miter;stroke:rgb(0%,0%,0%);stroke-opacity:1;stroke-miterlimit:10;" d="M 70.761719 240.589844 L 45.238281 237.386719 "/>
<path style="fill:none;stroke-width:1.2;stroke-linecap:butt;stroke-linejoin:miter;stroke:rgb(0%,0%,0%);stroke-opacity:1;stroke-miterlimit:10;" d="M 45.238281 237.386719 L 35.25 213.683594 "/>
<path style="fill:none;stroke-width:1.2;stroke-linecap:butt;stroke-linejoin:miter;stroke:rgb(0%,0%,0%);stroke-opacity:1;stroke-miterlimit:10;" d="M 49.816406 232.667969 L 41.824219 213.703125 "/>
<path style="fill:none;stroke-width:1.2;stroke-linecap:butt;stroke-linejoin:miter;stroke:rgb(0%,0%,0%);stroke-opacity:1;stroke-miterlimit:10;" d="M 35.25 213.683594 L 50.78125 193.183594 "/>
<path style="fill:none;stroke-width:1.2;stroke-linecap:butt;stroke-linejoin:miter;stroke:rgb(0%,0%,0%);stroke-opacity:1;stroke-miterlimit:10;" d="M 50.78125 193.183594 L 45.789062 181.332031 "/>
<path style="fill:none;stroke-width:1.2;stroke-linecap:butt;stroke-linejoin:miter;stroke:rgb(20%,80%,80%);stroke-opacity:1;stroke-miterlimit:10;" d="M 45.789062 181.332031 L 40.792969 169.480469 "/>
<path style="fill:none;stroke-width:1.2;stroke-linecap:butt;stroke-linejoin:miter;stroke:rgb(0%,0%,0%);stroke-opacity:1;stroke-miterlimit:10;" d="M 50.78125 193.183594 L 76.304688 196.382812 "/>
<path style="fill:none;stroke-width:1.2;stroke-linecap:butt;stroke-linejoin:miter;stroke:rgb(0%,0%,0%);stroke-opacity:1;stroke-miterlimit:10;" d="M 52.582031 199.507812 L 73 202.066406 "/>
<path style=" stroke:none;fill-rule:nonzero;fill:rgb(100%,100%,100%);fill-opacity:1;" d="M 33.792969 162.980469 L 40.792969 162.980469 L 40.792969 175.980469 L 33.792969 175.980469 Z M 33.792969 162.980469 "/>
<g style="fill:rgb(20%,80%,80%);fill-opacity:1;">
  <use xlink:href="#glyph0-1" x="33.792969" y="172.881836"/>
</g>
<path style="fill:none;stroke-width:1.2;stroke-linecap:butt;stroke-linejoin:miter;stroke:rgb(0%,0%,0%);stroke-opacity:1;stroke-miterlimit:10;" d="M 76.304688 196.382812 L 91.835938 175.878906 "/>
<path style="fill:none;stroke-width:1.2;stroke-linecap:butt;stroke-linejoin:miter;stroke:rgb(0%,0%,0%);stroke-opacity:1;stroke-miterlimit:10;" d="M 91.835938 175.878906 L 88.109375 163.570312 "/>
<path style="fill:none;stroke-width:1.2;stroke-linecap:butt;stroke-linejoin:miter;stroke:rgb(0%,0%,100%);stroke-opacity:1;stroke-miterlimit:10;" d="M 88.109375 163.570312 L 84.378906 151.261719 "/>
<path style="fill:none;stroke-width:1.2;stroke-linecap:butt;stroke-linejoin:miter;stroke:rgb(0%,0%,100%);stroke-opacity:1;stroke-miterlimit:10;" d="M 117.554688 176.394531 L 104.695312 176.136719 "/>
<path style="fill:none;stroke-width:1.2;stroke-linecap:butt;stroke-linejoin:miter;stroke:rgb(0%,0%,0%);stroke-opacity:1;stroke-miterlimit:10;" d="M 104.695312 176.136719 L 91.835938 175.878906 "/>
<path style="fill:none;stroke-width:1.2;stroke-linecap:butt;stroke-linejoin:miter;stroke:rgb(0%,0%,100%);stroke-opacity:1;stroke-miterlimit:10;" d="M 115.101562 170.292969 L 104.816406 170.085938 "/>
<path style="fill:none;stroke-width:1.2;stroke-linecap:butt;stroke-linejoin:miter;stroke:rgb(0%,0%,0%);stroke-opacity:1;stroke-miterlimit:10;" d="M 104.816406 170.085938 L 94.53125 169.878906 "/>
<path style="fill:none;stroke-width:1.2;stroke-linecap:butt;stroke-linejoin:miter;stroke:rgb(0%,0%,100%);stroke-opacity:1;stroke-miterlimit:10;" d="M 84.378906 151.261719 L 94.933594 143.914062 "/>
<path style="fill:none;stroke-width:1.2;stroke-linecap:butt;stroke-linejoin:miter;stroke:rgb(0%,0%,0%);stroke-opacity:1;stroke-miterlimit:10;" d="M 94.933594 143.914062 L 105.488281 136.5625 "/>
<path style=" stroke:none;fill-rule:nonzero;fill:rgb(100%,100%,100%);fill-opacity:1;" d="M 76.378906 144.761719 L 93.378906 144.761719 L 93.378906 157.761719 L 76.378906 157.761719 Z M 76.378906 144.761719 "/>
<g style="fill:rgb(0%,0%,100%);fill-opacity:1;">
  <use xlink:href="#glyph0-2" x="76.378906" y="154.663086"/>
  <use xlink:href="#glyph0-3" x="84.362305" y="154.663086"/>
</g>
<path style="fill:none;stroke-width:1.2;stroke-linecap:butt;stroke-linejoin:miter;stroke:rgb(0%,0%,0%);stroke-opacity:1;stroke-miterlimit:10;" d="M 105.488281 136.5625 L 125.988281 152.09375 "/>
<path style="fill:none;stroke-width:1.2;stroke-linecap:butt;stroke-linejoin:miter;stroke:rgb(0%,0%,0%);stroke-opacity:1;stroke-miterlimit:10;" d="M 103.882812 142.941406 L 120.285156 155.367188 "/>
<path style="fill:none;stroke-width:1.2;stroke-linecap:butt;stroke-linejoin:miter;stroke:rgb(0%,0%,0%);stroke-opacity:1;stroke-miterlimit:10;" d="M 105.488281 136.5625 L 106 110.847656 "/>
<path style="fill:none;stroke-width:1.2;stroke-linecap:butt;stroke-linejoin:miter;stroke:rgb(0%,0%,0%);stroke-opacity:1;stroke-miterlimit:10;" d="M 125.988281 152.09375 L 121.773438 164.246094 "/>
<path style="fill:none;stroke-width:1.2;stroke-linecap:butt;stroke-linejoin:miter;stroke:rgb(0%,0%,100%);stroke-opacity:1;stroke-miterlimit:10;" d="M 121.773438 164.246094 L 117.554688 176.394531 "/>
<path style="fill:none;stroke-width:1.2;stroke-linecap:butt;stroke-linejoin:miter;stroke:rgb(0%,0%,0%);stroke-opacity:1;stroke-miterlimit:10;" d="M 125.988281 152.09375 L 150.605469 144.636719 "/>
<path style=" stroke:none;fill-rule:nonzero;fill:rgb(100%,100%,100%);fill-opacity:1;" d="M 113.554688 169.894531 L 121.554688 169.894531 L 121.554688 182.894531 L 113.554688 182.894531 Z M 113.554688 169.894531 "/>
<g style="fill:rgb(0%,0%,100%);fill-opacity:1;">
  <use xlink:href="#glyph0-2" x="113.554688" y="179.795898"/>
</g>
<path style="fill:none;stroke-width:1.2;stroke-linecap:butt;stroke-linejoin:miter;stroke:rgb(0%,0%,0%);stroke-opacity:1;stroke-miterlimit:10;" d="M 150.605469 144.636719 L 169.375 162.226562 "/>
<path style="fill:none;stroke-width:1.2;stroke-linecap:butt;stroke-linejoin:miter;stroke:rgb(0%,0%,0%);stroke-opacity:1;stroke-miterlimit:10;" d="M 156.621094 141.980469 L 171.636719 156.050781 "/>
<path style="fill:none;stroke-width:1.2;stroke-linecap:butt;stroke-linejoin:miter;stroke:rgb(0%,0%,0%);stroke-opacity:1;stroke-miterlimit:10;" d="M 156.457031 119.589844 L 150.605469 144.636719 "/>
<path style="fill:none;stroke-width:1.2;stroke-linecap:butt;stroke-linejoin:miter;stroke:rgb(0%,0%,0%);stroke-opacity:1;stroke-miterlimit:10;" d="M 169.375 162.226562 L 193.992188 154.769531 "/>
<path style="fill:none;stroke-width:1.2;stroke-linecap:butt;stroke-linejoin:miter;stroke:rgb(0%,0%,0%);stroke-opacity:1;stroke-miterlimit:10;" d="M 193.992188 154.769531 L 205 161.421875 "/>
<path style="fill:none;stroke-width:1.2;stroke-linecap:butt;stroke-linejoin:miter;stroke:rgb(0%,0%,100%);stroke-opacity:1;stroke-miterlimit:10;" d="M 205 161.421875 L 216.003906 168.074219 "/>
<path style="fill:none;stroke-width:1.2;stroke-linecap:butt;stroke-linejoin:miter;stroke:rgb(0%,0%,0%);stroke-opacity:1;stroke-miterlimit:10;" d="M 199.839844 129.722656 L 193.992188 154.769531 "/>
<path style="fill:none;stroke-width:1.2;stroke-linecap:butt;stroke-linejoin:miter;stroke:rgb(0%,0%,0%);stroke-opacity:1;stroke-miterlimit:10;" d="M 193.363281 130.851562 L 188.683594 150.886719 "/>
<path style="fill:none;stroke-width:1.2;stroke-linecap:butt;stroke-linejoin:miter;stroke:rgb(0%,0%,100%);stroke-opacity:1;stroke-miterlimit:10;" d="M 216.003906 168.074219 L 217.09375 180.890625 "/>
<path style="fill:none;stroke-width:1.2;stroke-linecap:butt;stroke-linejoin:miter;stroke:rgb(0%,0%,0%);stroke-opacity:1;stroke-miterlimit:10;" d="M 217.09375 180.890625 L 218.179688 193.703125 "/>
<path style="fill:none;stroke-width:1.2;stroke-linecap:butt;stroke-linejoin:miter;stroke:rgb(0%,0%,100%);stroke-opacity:1;stroke-miterlimit:10;" d="M 216.003906 168.074219 L 225.734375 159.660156 "/>
<path style="fill:none;stroke-width:1.2;stroke-linecap:butt;stroke-linejoin:miter;stroke:rgb(0%,0%,0%);stroke-opacity:1;stroke-miterlimit:10;" d="M 225.734375 159.660156 L 235.460938 151.25 "/>
<path style=" stroke:none;fill-rule:nonzero;fill:rgb(100%,100%,100%);fill-opacity:1;" d="M 212.003906 161.574219 L 220.003906 161.574219 L 220.003906 174.574219 L 212.003906 174.574219 Z M 212.003906 161.574219 "/>
<g style="fill:rgb(0%,0%,100%);fill-opacity:1;">
  <use xlink:href="#glyph0-2" x="212.003906" y="171.475586"/>
</g>
<path style="fill:none;stroke-width:1.2;stroke-linecap:butt;stroke-linejoin:miter;stroke:rgb(0%,0%,0%);stroke-opacity:1;stroke-miterlimit:10;" d="M 218.179688 193.703125 L 241.464844 204.632812 "/>
<path style="fill:none;stroke-width:1.2;stroke-linecap:butt;stroke-linejoin:miter;stroke:rgb(0%,0%,0%);stroke-opacity:1;stroke-miterlimit:10;" d="M 241.464844 204.632812 L 264.75 215.5625 "/>
<path style="fill:none;stroke-width:1.2;stroke-linecap:butt;stroke-linejoin:miter;stroke:rgb(0%,0%,0%);stroke-opacity:1;stroke-miterlimit:10;" d="M 241.464844 204.632812 L 230.535156 227.917969 "/>
<path style="fill:none;stroke-width:1.2;stroke-linecap:butt;stroke-linejoin:miter;stroke:rgb(0%,0%,0%);stroke-opacity:1;stroke-miterlimit:10;" d="M 241.464844 204.632812 L 252.394531 181.347656 "/>
<path style="fill:none;stroke-width:1.2;stroke-linecap:butt;stroke-linejoin:miter;stroke:rgb(0%,0%,0%);stroke-opacity:1;stroke-miterlimit:10;" d="M 235.460938 151.25 L 230.464844 139.398438 "/>
<path style="fill:none;stroke-width:1.2;stroke-linecap:butt;stroke-linejoin:miter;stroke:rgb(0%,0%,100%);stroke-opacity:1;stroke-miterlimit:10;" d="M 230.464844 139.398438 L 225.472656 127.546875 "/>
<path style="fill:none;stroke-width:1.2;stroke-linecap:butt;stroke-linejoin:miter;stroke:rgb(0%,0%,0%);stroke-opacity:1;stroke-miterlimit:10;" d="M 228.882812 151.230469 L 224.890625 141.746094 "/>
<path style="fill:none;stroke-width:1.2;stroke-linecap:butt;stroke-linejoin:miter;stroke:rgb(0%,0%,100%);stroke-opacity:1;stroke-miterlimit:10;" d="M 224.890625 141.746094 L 220.894531 132.265625 "/>
<path style="fill:none;stroke-width:1.2;stroke-linecap:butt;stroke-linejoin:miter;stroke:rgb(0%,0%,0%);stroke-opacity:1;stroke-miterlimit:10;" d="M 235.460938 151.25 L 247.984375 154.171875 "/>
<path style="fill:none;stroke-width:1.2;stroke-linecap:butt;stroke-linejoin:miter;stroke:rgb(0%,0%,100%);stroke-opacity:1;stroke-miterlimit:10;" d="M 247.984375 154.171875 L 260.507812 157.097656 "/>
<path style="fill:none;stroke-width:1.2;stroke-linecap:butt;stroke-linejoin:miter;stroke:rgb(0%,0%,100%);stroke-opacity:1;stroke-miterlimit:10;" d="M 225.472656 127.546875 L 212.65625 128.632812 "/>
<path style="fill:none;stroke-width:1.2;stroke-linecap:butt;stroke-linejoin:miter;stroke:rgb(0%,0%,0%);stroke-opacity:1;stroke-miterlimit:10;" d="M 212.65625 128.632812 L 199.839844 129.722656 "/>
<path style=" stroke:none;fill-rule:nonzero;fill:rgb(100%,100%,100%);fill-opacity:1;" d="M 221.472656 121.046875 L 229.472656 121.046875 L 229.472656 134.046875 L 221.472656 134.046875 Z M 221.472656 121.046875 "/>
<g style="fill:rgb(0%,0%,100%);fill-opacity:1;">
  <use xlink:href="#glyph0-2" x="221.472656" y="130.948242"/>
</g>
<path style="fill:none;stroke-width:1.2;stroke-linecap:butt;stroke-linejoin:miter;stroke:rgb(0%,0%,0%);stroke-opacity:1;stroke-miterlimit:10;" d="M 199.839844 129.722656 L 181.074219 112.132812 "/>
<path style="fill:none;stroke-width:1.2;stroke-linecap:butt;stroke-linejoin:miter;stroke:rgb(0%,0%,0%);stroke-opacity:1;stroke-miterlimit:10;" d="M 181.074219 112.132812 L 156.457031 119.589844 "/>
<path style="fill:none;stroke-width:1.2;stroke-linecap:butt;stroke-linejoin:miter;stroke:rgb(0%,0%,0%);stroke-opacity:1;stroke-miterlimit:10;" d="M 180.367188 118.667969 L 160.671875 124.636719 "/>
<path style=" stroke:none;fill-rule:nonzero;fill:rgb(100%,100%,100%);fill-opacity:1;" d="M 249.507812 148.597656 L 271.507812 148.597656 L 271.507812 165.597656 L 249.507812 165.597656 Z M 249.507812 148.597656 "/>
<g style="fill:rgb(0%,0%,100%);fill-opacity:1;">
  <use xlink:href="#glyph0-2" x="249.507812" y="158.499023"/>
  <use xlink:href="#glyph0-3" x="257.491211" y="158.499023"/>
</g>
<g style="fill:rgb(0%,0%,100%);fill-opacity:1;">
  <use xlink:href="#glyph1-1" x="265.515625" y="163.381836"/>
</g>
<path style="fill:none;stroke-width:1.2;stroke-linecap:butt;stroke-linejoin:miter;stroke:rgb(0%,0%,0%);stroke-opacity:1;stroke-miterlimit:10;" d="M 106 110.847656 L 128.53125 98.433594 "/>
<path style="fill:none;stroke-width:1.2;stroke-linecap:butt;stroke-linejoin:miter;stroke:rgb(0%,0%,0%);stroke-opacity:1;stroke-miterlimit:10;" d="M 105.332031 104.304688 L 123.355469 94.375 "/>
<path style="fill:none;stroke-width:1.2;stroke-linecap:butt;stroke-linejoin:miter;stroke:rgb(0%,0%,0%);stroke-opacity:1;stroke-miterlimit:10;" d="M 83.988281 97.542969 L 106 110.847656 "/>
<path style="fill:none;stroke-width:1.2;stroke-linecap:butt;stroke-linejoin:miter;stroke:rgb(0%,0%,0%);stroke-opacity:1;stroke-miterlimit:10;" d="M 128.53125 98.433594 L 129.042969 72.714844 "/>
<path style="fill:none;stroke-width:1.2;stroke-linecap:butt;stroke-linejoin:miter;stroke:rgb(0%,0%,0%);stroke-opacity:1;stroke-miterlimit:10;" d="M 129.042969 72.714844 L 107.03125 59.410156 "/>
<path style="fill:none;stroke-width:1.2;stroke-linecap:butt;stroke-linejoin:miter;stroke:rgb(0%,0%,0%);stroke-opacity:1;stroke-miterlimit:10;" d="M 123.710938 76.566406 L 106.101562 65.921875 "/>
<path style="fill:none;stroke-width:1.2;stroke-linecap:butt;stroke-linejoin:miter;stroke:rgb(0%,0%,0%);stroke-opacity:1;stroke-miterlimit:10;" d="M 107.03125 59.410156 L 84.5 71.824219 "/>
<path style="fill:none;stroke-width:1.2;stroke-linecap:butt;stroke-linejoin:miter;stroke:rgb(0%,0%,0%);stroke-opacity:1;stroke-miterlimit:10;" d="M 84.5 71.824219 L 83.988281 97.542969 "/>
<path style="fill:none;stroke-width:1.2;stroke-linecap:butt;stroke-linejoin:miter;stroke:rgb(0%,0%,0%);stroke-opacity:1;stroke-miterlimit:10;" d="M 90.5 74.519531 L 90.089844 95.089844 "/>
</g>
</svg>

<svg xmlns="http://www.w3.org/2000/svg" xmlns:xlink="http://www.w3.org/1999/xlink" width="300pt" height="300pt" viewBox="0 0 300 300"><defs><symbol overflow="visible"><path d="M.547 1.938V-7.75h5.5v9.688zm.625-.61h4.266v-8.47H1.171zm0 0"/></symbol><symbol overflow="visible" id="a"><path d="M1.078-8.016h4.61v.907H2.171v2.36h3.172v.922H2.172V0H1.078zm0 0"/></symbol><symbol overflow="visible" id="b"><path d="M1.078-8.016h1.47l3.546 6.704v-6.704h1.062V0H5.688L2.124-6.703V0H1.078zm0 0"/></symbol><symbol overflow="visible" id="c"><path d="M1.078-8.016h1.094v3.282H6.11v-3.282h1.077V0H6.11v-3.813H2.17V0H1.078zm0 0"/></symbol><symbol overflow="visible"><path d="M.453 1.594v-7.938h4.5v7.938zm.5-.5h3.5v-6.938h-3.5zm0 0"/></symbol><symbol overflow="visible" id="d"><path d="M1.734-.75h3.094V0H.656v-.75c.344-.344.8-.805 1.375-1.39.583-.594.954-.973 1.11-1.14.282-.322.473-.595.58-.814.112-.226.17-.445.17-.656 0-.352-.12-.64-.36-.86-.24-.218-.557-.327-.952-.327-.28 0-.578.054-.89.156-.305.093-.633.24-.985.436v-.906c.352-.133.688-.238 1-.313.313-.082.598-.125.86-.125.675 0 1.218.172 1.624.516.407.344.61.797.61 1.36 0 .273-.055.53-.156.78-.105.243-.288.524-.546.845-.074.085-.31.328-.703.734-.398.406-.95.976-1.656 1.703zm0 0"/></symbol></defs><g><path fill="#fff" d="M0 0h300v300H0z"/><path d="M111.816 223.285l-12.76-1.6" stroke-width="1.2" stroke="#3cc" stroke-miterlimit="10" fill="none"/><path d="M99.055 221.684l-12.762-1.598" stroke-width="1.2" stroke="#000" stroke-miterlimit="10" fill="none"/><path d="M108.816 216.785h7v13h-7zm0 0" fill="#fff"/><use xlink:href="#a" x="108.816" y="226.687" fill="#3cc"/><path d="M86.293 220.086l-15.53 20.504M79.918 218.48l-12.426 16.403M76.305 196.383l9.988 23.703M70.762 240.59l-25.524-3.203M45.238 237.387l-9.988-23.703M49.816 232.668l-7.992-18.965M35.25 213.684l15.53-20.5M50.78 193.184l-4.99-11.852" stroke-width="1.2" stroke="#000" stroke-miterlimit="10" fill="none"/><path d="M45.79 181.332l-4.997-11.852" stroke-width="1.2" stroke="#3cc" stroke-miterlimit="10" fill="none"/><path d="M50.78 193.184l25.525 3.2M52.582 199.508L73 202.066" stroke-width="1.2" stroke="#000" stroke-miterlimit="10" fill="none"/><path d="M33.793 162.98h7v13h-7zm0 0" fill="#fff"/><use xlink:href="#a" x="33.793" y="172.882" fill="#3cc"/><path d="M76.305 196.383l15.53-20.504M91.836 175.88l-3.727-12.31" stroke-width="1.2" stroke="#000" stroke-miterlimit="10" fill="none"/><path d="M88.11 163.57l-3.73-12.308M117.555 176.395l-12.86-.258" stroke-width="1.2" stroke="#00f" stroke-miterlimit="10" fill="none"/><path d="M104.695 176.137l-12.86-.258" stroke-width="1.2" stroke="#000" stroke-miterlimit="10" fill="none"/><path d="M115.102 170.293l-10.286-.207" stroke-width="1.2" stroke="#00f" stroke-miterlimit="10" fill="none"/><path d="M104.816 170.086l-10.285-.207" stroke-width="1.2" stroke="#000" stroke-miterlimit="10" fill="none"/><path d="M84.38 151.262l10.554-7.348" stroke-width="1.2" stroke="#00f" stroke-miterlimit="10" fill="none"/><path d="M94.934 143.914l10.554-7.35" stroke-width="1.2" stroke="#000" stroke-miterlimit="10" fill="none"/><path d="M76.38 144.762h17v13h-17zm0 0" fill="#fff"/><g fill="#00f"><use xlink:href="#b" x="76.379" y="154.663"/><use xlink:href="#c" x="84.362" y="154.663"/></g><path d="M105.488 136.563l20.5 15.53M103.883 142.94l16.402 12.427M105.488 136.563l.512-25.715M125.988 152.094l-4.215 12.152" stroke-width="1.2" stroke="#000" stroke-miterlimit="10" fill="none"/><path d="M121.773 164.246l-4.218 12.15" stroke-width="1.2" stroke="#00f" stroke-miterlimit="10" fill="none"/><path d="M125.988 152.094l24.617-7.457" stroke-width="1.2" stroke="#000" stroke-miterlimit="10" fill="none"/><path d="M113.555 169.895h8v13h-8zm0 0" fill="#fff"/><use xlink:href="#b" x="113.555" y="179.796" fill="#00f"/><path d="M150.605 144.637l18.77 17.59M156.62 141.98l15.017 14.07M156.457 119.59l-5.852 25.047M169.375 162.227l24.617-7.457M193.992 154.77L205 161.422" stroke-width="1.2" stroke="#000" stroke-miterlimit="10" fill="none"/><path d="M205 161.422l11.004 6.652" stroke-width="1.2" stroke="#00f" stroke-miterlimit="10" fill="none"/><path d="M199.84 129.723l-5.848 25.047M193.363 130.852l-4.68 20.035" stroke-width="1.2" stroke="#000" stroke-miterlimit="10" fill="none"/><path d="M216.004 168.074l1.09 12.817" stroke-width="1.2" stroke="#00f" stroke-miterlimit="10" fill="none"/><path d="M217.094 180.89l1.086 12.813" stroke-width="1.2" stroke="#000" stroke-miterlimit="10" fill="none"/><path d="M216.004 168.074l9.73-8.414" stroke-width="1.2" stroke="#00f" stroke-miterlimit="10" fill="none"/><path d="M225.734 159.66l9.727-8.41" stroke-width="1.2" stroke="#000" stroke-miterlimit="10" fill="none"/><path d="M212.004 161.574h8v13h-8zm0 0" fill="#fff"/><use xlink:href="#b" x="212.004" y="171.476" fill="#00f"/><path d="M218.18 193.703l23.285 10.93M241.465 204.633l23.285 10.93M241.465 204.633l-10.93 23.285M241.465 204.633l10.93-23.285M235.46 151.25l-4.995-11.852" stroke-width="1.2" stroke="#000" stroke-miterlimit="10" fill="none"/><path d="M230.465 139.398l-4.992-11.85" stroke-width="1.2" stroke="#00f" stroke-miterlimit="10" fill="none"/><path d="M228.883 151.23l-3.992-9.484" stroke-width="1.2" stroke="#000" stroke-miterlimit="10" fill="none"/><path d="M224.89 141.746l-3.995-9.48" stroke-width="1.2" stroke="#00f" stroke-miterlimit="10" fill="none"/><path d="M235.46 151.25l12.524 2.922" stroke-width="1.2" stroke="#000" stroke-miterlimit="10" fill="none"/><path d="M247.984 154.172l12.524 2.926M225.473 127.547l-12.817 1.086" stroke-width="1.2" stroke="#00f" stroke-miterlimit="10" fill="none"/><path d="M212.656 128.633l-12.816 1.09" stroke-width="1.2" stroke="#000" stroke-miterlimit="10" fill="none"/><path d="M221.473 121.047h8v13h-8zm0 0" fill="#fff"/><use xlink:href="#b" x="221.473" y="130.948" fill="#00f"/><path d="M199.84 129.723l-18.766-17.59M181.074 112.133l-24.617 7.457M180.367 118.668l-19.695 5.97" stroke-width="1.2" stroke="#000" stroke-miterlimit="10" fill="none"/><path d="M249.508 148.598h22v17h-22zm0 0" fill="#fff"/><g fill="#00f"><use xlink:href="#b" x="249.508" y="158.499"/><use xlink:href="#c" x="257.491" y="158.499"/></g><use xlink:href="#d" x="265.516" y="163.382" fill="#00f"/><path d="M106 110.848l22.53-12.414M105.332 104.305l18.023-9.93M83.988 97.543L106 110.848M128.53 98.434l.513-25.72M129.043 72.715L107.03 59.41M123.71 76.566l-17.608-10.644M107.03 59.41L84.5 71.824M84.5 71.824l-.512 25.72M90.5 74.52l-.41 20.57" stroke-width="1.2" stroke="#000" stroke-miterlimit="10" fill="none"/></g></svg>
